X: 87
T: Saint Anne's Reel
T: Reel de Sainte Agathe
O:JC
R:reel
Z:1997 by John Chambers <jc:trillian.mit.edu>
N:Many different versions exist.
M:C|
L:1/8
K:D
de |: "D"f2fg fedB | A2AF DFA2 \
|1,3 "G"B2BG DGB2 | "D"A2{B}AF DFAd \
:|2,4 "G"BGBd "A7"cAce | dfec "D"d2 :|
ag |: "D"fdAd fdfa | "Em"aggf g2ef | "A7"gfec Aceg \
|1,3 baa^g "(D)"a2a=g \
:|2,4 "D"fd"A7"ec "D"d2 :|

%%sep 2 1 500
%%sep 1 1 500

